coreui/free/cil-hand-point-down.svg

<svg xmlns="http://www.w3.org/2000/svg" viewBox="0 0 512 512">
  <path fill="var(--ci-primary-color, currentColor)" d="M460.579,101.868,409.06,16H264.892L41.573,263.245a24,24,0,0,0,2.007,34.148A90.41,90.41,0,0,0,173.089,286.6L191.582,264H216V444a52,52,0,0,0,104,0V332.162l126.423-35.119A24.071,24.071,0,0,0,464,273.919v-159.7A24.006,24.006,0,0,0,460.579,101.868ZM432,267.838l-144,40V444a20,20,0,0,1-40,0V232H176.418l-28.1,34.34a58.439,58.439,0,0,1-77.181,11.91L279.108,48H390.94L432,116.433Z" class="ci-primary"/>
</svg>

<svg viewBox="0 0 512 512" xmlns="http://www.w3.org/2000/svg"><path d="M460.579 101.868L409.059 16H264.891L41.57 263.245h0c-8.89 9.83-8.12 25.01 1.72 33.89 .09.08.18.16.28.25h0c37.57 32.87 94.69 29.07 127.57-8.51 .65-.76 1.3-1.52 1.93-2.29l18.49-22.6h24.41v180 0c0 28.71 23.28 52 52 52 28.71 0 52-23.29 52-52v-111.84l126.423-35.12v0c10.37-2.91 17.55-12.36 17.57-23.13v-159.7l-.001-.001c0-4.36-1.19-8.63-3.43-12.36Zm-28.58 165.97l-144 40v136.16 0c0 11.04-8.96 20-20 20 -11.05 0-20-8.96-20-20v-212H176.41l-28.1 34.34v0c-18.91 23.1-52.19 28.23-77.19 11.91L279.09 47.99H390.93l41.06 68.433Z"/></svg>
